X: 89
T: 85. GUILDEROY
B: Sam Bayard, "Hill Country Tunes" 1944 #85
N: Played by irvin Yaugher Jr., Mt. Independence, PA, Oct 19, 1943.  Learned from his great-uncle.
R: reel
M: 4/4
L: 1/8
Z: 2010 John Chambers <jc:trillian.mit.edu>
K: Amix
[A2E2] |\
E2A2 "a."ABcd | efge d2cd | e2A2 A2 ((3cBA) | GFEF GFED |
E2A2 ABcd | efge d2cd | e2a2 ^gfed | c2A2 A2 || ef |
g3a gfef | gage | d2cd | e2A2 "b."AcBA | GFEF GFED |
E2A2 ABcd | efge d2cd | e2a2 ^gfed | c2A2 A2 |]
P: Var:
"a."A2 || "b."A2 ((3cBA) |]

%%sep 2 1 500
%%sep 1 1 500

